X: 3
T: The Yellow Wattle
R: jig
M: 6/8
L: 1/8
K: Dmix
|:dcA ~A2D| (3.F.G.A D (3.G.F.E D|dcA ~A2B|dcA GED:|
|~D3 c2A|dfd cBc|~D3 c2e|dcA GED|
~D3 c2A|dfd (3Bcd e|(3.g.f.e d (3edc e|dcA GED|


Tune 1237	Setting 27394

